public/logos/polymarket.svg

<svg width="201" height="61" viewBox="0 0 201 61" fill="none" xmlns="http://www.w3.org/2000/svg">
<path fill-rule="evenodd" clip-rule="evenodd" d="M94.8472 39.4797V20.2939H91.6921V39.4797H94.8472ZM63.8738 32.7603V39.4803H60.592V21.2939H67.675C69.0689 21.2939 70.2747 21.5417 71.2926 22.0371C72.3105 22.5326 73.0856 23.2195 73.6177 24.0981C74.1498 24.9766 74.4159 25.978 74.4159 27.1021C74.4159 28.2762 74.152 29.288 73.6241 30.1373C73.096 30.9866 72.3274 31.6362 71.3179 32.0859C70.3085 32.5356 69.0942 32.7603 67.675 32.7603H63.8738ZM63.8737 30.1623H67.675C68.8491 30.1623 69.7171 29.8916 70.2788 29.3504C70.8406 28.8091 71.1215 28.068 71.1215 27.127C71.1215 26.5442 70.999 26.0091 70.754 25.522C70.5091 25.0349 70.1289 24.6435 69.6136 24.3479C69.0983 24.0523 68.4522 23.9045 67.675 23.9045H63.8737V30.1623ZM82.5598 39.7307C83.8692 39.7307 85.0053 39.4352 85.9683 38.8439C86.9313 38.2527 87.6684 37.4367 88.1794 36.3957C88.6905 35.3549 88.9459 34.1765 88.9459 32.8609V32.5986C88.9459 31.2829 88.6905 30.1046 88.1794 29.0637C87.6684 28.0229 86.9292 27.2047 85.962 26.6093C84.9947 26.0139 83.8523 25.7162 82.5345 25.7162C81.2337 25.7162 80.1016 26.0139 79.1387 26.6093C78.1757 27.2047 77.4387 28.0229 76.9276 29.0637C76.4166 30.1046 76.161 31.2829 76.161 32.5986V32.8609C76.161 34.1765 76.4166 35.3549 76.9276 36.3957C77.4387 37.4367 78.1778 38.2527 79.145 38.8439C80.1122 39.4352 81.2505 39.7307 82.5598 39.7307ZM80.127 36.0088C80.6676 36.8249 81.4786 37.233 82.5599 37.233C83.2778 37.233 83.8798 37.0393 84.3654 36.6521C84.8511 36.2649 85.2102 35.7424 85.4425 35.0846C85.6748 34.4266 85.7909 33.6856 85.7909 32.8612V32.5989C85.7909 31.7828 85.6748 31.0438 85.4425 30.3818C85.2102 29.7197 84.8491 29.1931 84.3591 28.8017C83.8692 28.4103 83.261 28.2146 82.5345 28.2146C81.8165 28.2146 81.2167 28.4103 80.7352 28.8017C80.2538 29.1931 79.8968 29.7197 79.6645 30.3818C79.4322 31.0438 79.316 31.7828 79.316 32.5989V32.8612C79.316 34.1435 79.5864 35.1928 80.127 36.0088ZM102.161 43.9313C101.515 44.6016 100.592 44.9369 99.3925 44.9369C98.9786 44.9369 98.476 44.8619 97.8847 44.712V42.3262L98.4675 42.3513C99.2193 42.3513 99.7917 42.2201 100.184 41.9578C100.577 41.6955 100.888 41.2354 101.116 40.5776L101.547 39.4284L96.7316 25.9635H100.14L102.991 35.0317L105.753 25.9635H109.111L103.65 41.5269C103.304 42.4595 102.807 43.2609 102.161 43.9313ZM113.986 39.481V29.7133C114.493 28.739 115.35 28.2518 116.558 28.2518C117.352 28.2518 117.954 28.4434 118.364 28.8264C118.774 29.2094 118.979 29.8548 118.979 30.7624V39.481H122.134V30.4752L122.121 30.1879C122.306 29.5966 122.621 29.1262 123.065 28.7764C123.508 28.4267 124.06 28.2518 124.719 28.2518C125.52 28.2518 126.122 28.433 126.524 28.7952C126.925 29.1574 127.126 29.8007 127.126 30.725V39.481H130.281V30.7375C130.281 28.9971 129.897 27.7251 129.127 26.9216C128.359 26.118 127.248 25.7162 125.796 25.7162C124.874 25.7162 124.06 25.8974 123.35 26.2596C122.641 26.6218 122.053 27.1277 121.589 27.7772C121.242 27.0777 120.748 26.5593 120.106 26.2221C119.464 25.8849 118.712 25.7162 117.851 25.7162C117.006 25.7162 116.252 25.8598 115.589 26.1471C114.926 26.4345 114.362 26.8487 113.897 27.39L113.796 25.966H110.831V39.481H113.986ZM139.654 39.3186C139.054 39.5934 138.374 39.7307 137.613 39.7307C136.718 39.7307 135.916 39.5559 135.206 39.2062C134.496 38.8565 133.943 38.3734 133.547 37.7572C133.15 37.141 132.951 36.4499 132.951 35.6838C132.951 34.2432 133.494 33.1399 134.579 32.3737C135.665 31.6077 137.204 31.2247 139.197 31.2247H141.098V30.3503C141.098 29.6342 140.9 29.0741 140.503 28.6703C140.106 28.2664 139.519 28.0644 138.741 28.0644C138.277 28.0644 137.867 28.1436 137.512 28.3018C137.157 28.46 136.883 28.6765 136.689 28.9513C136.494 29.2261 136.397 29.5342 136.397 29.8757H133.242C133.242 29.1511 133.477 28.4704 133.945 27.8334C134.414 27.1964 135.081 26.6842 135.947 26.297C136.813 25.9098 137.803 25.7162 138.919 25.7162C139.966 25.7162 140.891 25.8911 141.694 26.2408C142.497 26.5906 143.123 27.1152 143.575 27.8147C144.028 28.5141 144.253 29.3677 144.253 30.3752V36.3334C144.253 37.5657 144.427 38.5441 144.773 39.2686V39.481H141.555C141.419 39.1895 141.301 38.769 141.2 38.2195C140.768 38.6774 140.253 39.0438 139.654 39.3186ZM138.222 37.2444C137.555 37.2444 137.035 37.0716 136.664 36.7261C136.292 36.3805 136.106 35.9328 136.106 35.3832C136.106 34.6754 136.389 34.1259 136.955 33.7345C137.52 33.3432 138.353 33.1474 139.451 33.1474H141.098V35.6706C140.862 36.1035 140.488 36.4742 139.977 36.7822C139.466 37.0903 138.881 37.2444 138.222 37.2444ZM150.572 30.2753V39.481H147.418V25.966H150.42L150.509 27.4899C150.855 26.9237 151.287 26.4865 151.801 26.1783C152.317 25.8703 152.913 25.7162 153.588 25.7162C153.766 25.7162 153.966 25.7328 154.19 25.7662C154.413 25.7995 154.581 25.8369 154.691 25.8786L154.665 28.8139C154.243 28.7473 153.824 28.714 153.411 28.714C152 28.714 151.054 29.2344 150.572 30.2753ZM159.742 39.4797V35.0954L161.125 33.7089L165.116 39.4797H168.765L163.152 31.5856L168.233 25.9647H164.431L160.681 30.1491L159.742 31.2982V20.2939H156.601V39.4797H159.742ZM179.456 39.0063C178.569 39.4893 177.495 39.7307 176.237 39.7307C174.903 39.7307 173.736 39.4456 172.739 38.8751C171.744 38.3048 170.979 37.5241 170.447 36.5332C169.915 35.5423 169.648 34.4305 169.648 33.1982V32.686C169.648 31.2954 169.918 30.0734 170.46 29.0201C171 27.9667 171.744 27.1526 172.689 26.5781C173.635 26.0035 174.7 25.7162 175.882 25.7162C177.175 25.7162 178.26 25.9952 179.139 26.5532C180.017 27.111 180.674 27.8917 181.109 28.8951C181.544 29.8985 181.762 31.0623 181.762 32.3862V33.6978H172.829C172.887 34.3889 173.07 35.001 173.374 35.5339C173.677 36.0669 174.089 36.4832 174.609 36.7829C175.128 37.0828 175.735 37.2327 176.427 37.2327C177.846 37.2327 178.986 36.683 179.849 35.5839L181.534 37.1952C181.035 37.9196 180.343 38.5234 179.456 39.0063ZM178.644 31.4497H172.892C173.035 30.4255 173.361 29.6303 173.868 29.0641C174.374 28.4977 175.042 28.2146 175.869 28.2146C176.798 28.2146 177.483 28.4957 177.923 29.0578C178.362 29.6198 178.602 30.3381 178.644 31.2125V31.4497ZM190.526 39.4308C189.918 39.6306 189.234 39.7305 188.474 39.7305C187.358 39.7305 186.48 39.4266 185.838 38.8187C185.196 38.2108 184.875 37.2407 184.875 35.9084V28.264H182.645V25.9658H184.875V22.6683H188.03V25.9658H190.437V28.264H188.03V35.696C188.03 36.2623 188.148 36.6474 188.385 36.8515C188.621 37.0555 188.976 37.1575 189.449 37.1575C189.787 37.1575 190.146 37.1158 190.526 37.0325V39.4308Z" fill="white"/>
<path fill-rule="evenodd" clip-rule="evenodd" d="M43.0723 28.7811V10L10 19.3149V19.4662V41.5339V41.6851L43.0723 51V32.219V28.7811ZM39.8713 27.8795V14.1901L15.5703 21.0351L39.8713 27.8795ZM37.4968 30.5001L13.201 23.6564V37.3436L37.4968 30.5001ZM15.5704 39.9649L39.8713 46.8099V33.1206L15.5704 39.9649Z" fill="white"/>
</svg>

<svg xmlns="http://www.w3.org/2000/svg" xmlns:xlink="http://www.w3.org/1999/xlink" viewBox="10.0078125 10.0078125 180.6171875 40.984375" width="96.95348837209302" height="22"><path fill="#fff" fill-rule="evenodd" d="M94.847 39.48V20.294h-3.155V39.48zm-30.973-6.72v6.72h-3.282V21.294h7.083q2.091 0 3.618.743 1.526.744 2.325 2.061.798 1.318.798 3.004 0 1.761-.792 3.035t-2.306 1.949-3.643.674zm0-2.598h3.801q1.761 0 2.604-.812.843-.81.843-2.223 0-.874-.368-1.605-.368-.73-1.14-1.174-.774-.444-1.939-.444h-3.801zm18.686 9.569q1.964 0 3.408-.887a5.8 5.8 0 0 0 2.211-2.448q.767-1.562.767-3.535v-.262q0-1.974-.767-3.535a5.84 5.84 0 0 0-2.217-2.455q-1.45-.893-3.428-.893-1.95 0-3.395.893a5.86 5.86 0 0 0-2.211 2.455q-.767 1.56-.767 3.535v.262q0 1.974.767 3.535a5.8 5.8 0 0 0 2.217 2.448q1.451.887 3.415.887m-2.433-3.722q.81 1.224 2.433 1.224 1.077 0 1.805-.58.729-.581 1.078-1.568.348-.988.348-2.224V32.6q0-1.224-.349-2.217-.348-.993-1.083-1.58t-1.825-.587q-1.076 0-1.799.587t-1.07 1.58q-.35.992-.349 2.217v.262q0 1.924.811 3.148m22.034 7.922q-.969 1.006-2.769 1.006-.62 0-1.507-.225v-2.386l.582.025q1.129 0 1.717-.393.59-.394.932-1.38l.431-1.15-4.815-13.464h3.408l2.851 9.068 2.762-9.068h3.358l-5.461 15.563a6.85 6.85 0 0 1-1.489 2.404m11.825-4.45v-9.768q.76-1.461 2.572-1.461 1.191 0 1.806.574.615.575.615 1.936v8.719h3.155v-9.006l-.013-.287q.278-.887.944-1.412t1.654-.524q1.202 0 1.805.543.602.544.602 1.93v8.756h3.155v-8.744q0-2.61-1.154-3.815t-3.331-1.206q-1.382 0-2.446.544a4.84 4.84 0 0 0-1.761 1.517q-.52-1.05-1.483-1.555-.963-.506-2.255-.506-1.267 0-2.262.431a4.6 4.6 0 0 0-1.692 1.243l-.101-1.424h-2.965v13.515zm25.668-.162q-.9.411-2.041.412-1.342 0-2.407-.525t-1.659-1.449a3.75 3.75 0 0 1-.596-2.073q0-2.16 1.628-3.31 1.629-1.15 4.618-1.15h1.901v-.874q0-1.074-.595-1.68t-1.762-.606q-.696 0-1.229.238a1.95 1.95 0 0 0-.823.65 1.56 1.56 0 0 0-.292.924h-3.155q0-1.088.703-2.043t2.002-1.536q1.299-.58 2.972-.58 1.57 0 2.775.524t1.881 1.574q.679 1.05.678 2.56v5.958q0 1.849.52 2.936v.212h-3.218q-.204-.437-.355-1.262a4.9 4.9 0 0 1-1.546 1.1m-1.432-2.075q-1.001 0-1.558-.518t-.558-1.343q0-1.061.849-1.649.848-.586 2.496-.587h1.647v2.524q-.354.648-1.121 1.111-.766.462-1.755.462m12.35-6.969v9.206h-3.154V25.966h3.002l.089 1.524a3.8 3.8 0 0 1 1.292-1.312q.774-.462 1.787-.462.266 0 .602.05t.501.113l-.026 2.935a8 8 0 0 0-1.254-.1q-2.116 0-2.839 1.561m9.17 9.205v-4.385l1.383-1.386 3.991 5.77h3.649l-5.613-7.893 5.081-5.621h-3.802l-3.75 4.184-.939 1.15V20.293h-3.141V39.48zm19.714-.474q-1.331.725-3.219.725-2.002 0-3.498-.856a5.84 5.84 0 0 1-2.292-2.342q-.799-1.485-.799-3.335v-.512q0-2.086.812-3.666.81-1.58 2.229-2.442t3.193-.862q1.939 0 3.257.837 1.317.837 1.97 2.342t.653 3.491v1.312h-8.933q.088 1.036.545 1.836.455.8 1.235 1.249t1.818.45q2.128 0 3.422-1.65l1.685 1.612q-.748 1.087-2.078 1.811m-.812-7.556h-5.752q.215-1.537.976-2.386.76-.85 2.001-.85 1.394 0 2.054.844.658.843.721 2.154zm11.882 7.98q-.912.3-2.052.3-1.673 0-2.636-.911-.963-.912-.963-2.91v-7.645h-2.23v-2.298h2.23v-3.298h3.155v3.298h2.407v2.298h-2.407v7.432q0 .849.355 1.156.354.306 1.064.306.507 0 1.077-.126zM43.072 28.781V10L10 19.315v22.37L43.072 51zm-3.2-.901V14.19L15.57 21.035zm-2.375 2.62L13.2 23.656v13.688zM15.57 39.965l24.301 6.845V33.12z" clip-rule="evenodd"/></svg>
